school/img/country/COC.svg

<svg width="13" height="12" viewBox="0 0 13 12" fill="none" xmlns="http://www.w3.org/2000/svg">
<rect width="13" height="12" rx="2" fill="white"/>
<mask id="mask0" mask-type="alpha" maskUnits="userSpaceOnUse" x="0" y="0" width="13" height="12">
<rect width="13" height="12" rx="2" fill="white"/>
</mask>
<g mask="url(#mask0)">
<rect width="13" height="12" fill="url(#paint0_linear)"/>
<path fill-rule="evenodd" clip-rule="evenodd" d="M6.30547 1.99999C6.23172 1.99999 6.16087 2.02869 6.10791 2.08002L5.00808 3.146C4.97144 3.18152 4.92713 3.20815 4.87857 3.22384L3.75595 3.58653C3.72829 3.59547 3.70193 3.60798 3.67752 3.62375L2.56711 4.34125C2.50802 4.37943 2.46252 4.43533 2.43714 4.50094L1.91125 5.86015C1.87684 5.94908 1.88217 6.0485 1.92589 6.13325L2.4391 7.12808C2.46347 7.17533 2.47619 7.22773 2.47619 7.2809V8.28608C2.47619 8.35992 2.50071 8.43168 2.5459 8.49008L2.90787 8.95785C3.01383 9.09478 3.20698 9.12779 3.3524 9.03383L4.8698 8.05335C4.92371 8.01852 4.98652 7.99999 5.05071 7.99999H6.04512C6.13781 7.99999 6.22632 8.03858 6.28939 8.10651L7.94871 9.89347C8.01178 9.9614 8.10029 9.99999 8.19298 9.99999H9.0826C9.20734 9.99999 9.32165 9.93034 9.37884 9.81948L10.4867 7.6719C10.5111 7.62465 10.5238 7.57225 10.5238 7.51908V6.0809C10.5238 6.02773 10.5111 5.97533 10.4867 5.92808L9.28572 3.59999L8.41931 1.73388C8.3814 1.65223 8.29955 1.59999 8.20953 1.59999H8.13418C7.9727 1.59999 7.88167 1.78553 7.98049 1.91324C8.02216 1.96708 8.03261 2.0388 8.00804 2.10229L7.82053 2.58694C7.77085 2.71534 7.64733 2.79999 7.50965 2.79999H7.03797C6.90029 2.79999 6.77677 2.71534 6.72709 2.58694L6.5702 2.18142C6.52789 2.07207 6.42271 1.99999 6.30547 1.99999ZM8.97617 10.4H8.35712L8.40302 10.4593C8.53647 10.6318 8.79683 10.6318 8.93027 10.4593L8.97617 10.4Z" fill="white"/>
</g>
<defs>
<linearGradient id="paint0_linear" x1="0" y1="0" x2="0" y2="12" gradientUnits="userSpaceOnUse">
<stop stop-color="#19BFBF"/>
<stop offset="1" stop-color="#10ACAC"/>
</linearGradient>
</defs>
</svg>

<svg width="13" height="12" fill="none" xmlns="http://www.w3.org/2000/svg"><rect width="13" height="12" rx="2" fill="#fff"/><mask id="a" maskUnits="userSpaceOnUse" x="0" y="0" width="13" height="12"><rect width="13" height="12" rx="2" fill="#fff"/></mask><g mask="url(#a)"><path fill="url(#paint0_linear)" d="M0 0h13v12H0z"/><path fill-rule="evenodd" clip-rule="evenodd" d="M6.305 2a.284.284 0 00-.197.08l-1.1 1.066a.333.333 0 01-.13.078l-1.122.363a.334.334 0 00-.078.037l-1.11.717a.333.333 0 00-.13.16L1.91 5.86a.333.333 0 00.015.272l.513.995c.024.047.037.1.037.153v1.005c0 .074.025.146.07.204l.362.468c.106.137.299.17.444.076l1.518-.98A.333.333 0 015.05 8h.995c.093 0 .181.039.244.107l1.66 1.786a.333.333 0 00.244.107h.89c.124 0 .239-.07.296-.18l1.108-2.148a.333.333 0 00.037-.153V6.081a.333.333 0 00-.037-.153L9.286 3.6l-.867-1.866a.231.231 0 00-.21-.134h-.075a.194.194 0 00-.154.313.194.194 0 01.028.19l-.187.484a.333.333 0 01-.311.213h-.472a.333.333 0 01-.31-.213L6.57 2.18A.284.284 0 006.305 2zm2.671 8.4h-.619l.046.06a.333.333 0 00.527 0l.046-.06z" fill="#fff"/></g><defs><linearGradient id="paint0_linear" x1="0" y1="0" x2="0" y2="12" gradientUnits="userSpaceOnUse"><stop stop-color="#19BFBF"/><stop offset="1" stop-color="#10ACAC"/></linearGradient></defs></svg>
